X: 16
T: The Swallow's Tail
R: reel
M: 4/4
L: 1/8
K: Ador
|:Bd|e2ed eAA2|edef g2gf|gedB dGG2|Bdef g2fg|
e2ed eAA2|edef g2fg|eaag agef|gedB A2 :|
|:Bd|eaag aged|edef g2gf|gedB dGG2|Bdef g2fg|
|1   eaag aged|edef g2fg|eaag agef|gedB A2 :|
|2   e2ed eAA2|edef g2fg|eaag agef|gedB A2 |]


Tune 105	Setting 28744

